X: 674
T: Evcârâ Seyir
C: Rauf Yektâ
O: Turkey
F: http://compmusic.upf.edu/node/140
N: evcara--seyir--semai--1--rauf_yekta
N: makam= evcara
N: form= seyir
N: usul= semai = 3/4
M: 3/4
L: 1/16
K: C _1/4B ^f ^c ^A
Q: 1/4=120
%%MIDI tuningsystem comma53
f8 f4  | f8 ^e4  | d8 ^e4  | f8 z4  | f8 g4  | \
w:   |   |   |   |   | 
=a8 g4  | =a4 g4 f4  | ^e4 f8  | f4 =a8  | \
w:   |   |   |   | 
=a8 ^g2a2  | 
w:   | 
b8 =a4  | =a4 ^g4 f4  | f4 g4 f4  | =a8 g4  | \
w:   |   |   |   | 
g4 f4 ^e4  | f8 z4  | f8 f4  | =a12  | g8 f4  | \
w:   |   |   |   |   | 
^e4 d8  | 
w:   | 
g8 f4  | ^e4 d4 c4  | B4 A4 B4  | c8 z4  | \
w:   |   |   |   | 
c4 d8  | d8 c4  | c8 B4  | B4 A4 G4  | A4 B4 c4  | 
w:   |   |   |   |   | 
d4 c4 B4  | A8 G4  | F8 z4  | |


